lib/flags/mm-myanmar.svg

<svg xmlns="http://www.w3.org/2000/svg" fill="none" aria-hidden="true" viewBox="0 0 42 30"><g id="Country=MM - Myanmar, Size=sm (36x24)" filter="url(#filter0_dd_91_26492)"><g clip-path="url(#clip0_91_26492)"><g id="flag"><mask id="mask0_91_26492" width="36" height="24" x="3" y="2" maskUnits="userSpaceOnUse" style="mask-type:alpha"><rect id="mask" width="36" height="24" x="3" y="2" fill="white"/></mask><g mask="url(#mask0_91_26492)"><g id="contents"><path id="bottom" fill="#E31D1C" fill-rule="evenodd" d="M3 18H39V26H3V18Z" clip-rule="evenodd"/><path id="middle" fill="#5EAA22" fill-rule="evenodd" d="M3 10H39V18H3V10Z" clip-rule="evenodd"/><path id="top" fill="#FFD018" fill-rule="evenodd" d="M3 2H39V10H3V2Z" clip-rule="evenodd"/><g id="mark"><path id="Star 5" fill="#F7FCFF" fill-rule="evenodd" d="M21.0696 17.9755L15.2749 21.2504L17.2186 15.5174L13.0854 11.7717L18.7837 11.6611L21.3048 6.00122L23.6021 11.7358L29.2868 11.824L25.0149 15.6383L27.0097 21.0923L21.0696 17.9755Z" clip-rule="evenodd"/></g></g></g></g></g></g><defs><filter id="filter0_dd_91_26492" width="42" height="30" x="0" y="0" color-interpolation-filters="sRGB" filterUnits="userSpaceOnUse"><feFlood flood-opacity="0" result="BackgroundImageFix"/><feColorMatrix in="SourceAlpha" result="hardAlpha" values="0 0 0 0 0 0 0 0 0 0 0 0 0 0 0 0 0 0 127 0"/><feOffset dy="1"/><feGaussianBlur stdDeviation="1"/><feColorMatrix values="0 0 0 0 0.0627451 0 0 0 0 0.0941176 0 0 0 0 0.156863 0 0 0 0.06 0"/><feBlend in2="BackgroundImageFix" result="effect1_dropShadow_91_26492"/><feColorMatrix in="SourceAlpha" result="hardAlpha" values="0 0 0 0 0 0 0 0 0 0 0 0 0 0 0 0 0 0 127 0"/><feOffset dy="1"/><feGaussianBlur stdDeviation="1.5"/><feColorMatrix values="0 0 0 0 0.0627451 0 0 0 0 0.0941176 0 0 0 0 0.156863 0 0 0 0.1 0"/><feBlend in2="effect1_dropShadow_91_26492" result="effect2_dropShadow_91_26492"/><feBlend in="SourceGraphic" in2="effect2_dropShadow_91_26492" result="shape"/></filter><clipPath id="clip0_91_26492"><rect width="36" height="24" x="3" y="2" fill="white" rx="2"/></clipPath></defs></svg>

<svg xmlns="http://www.w3.org/2000/svg" fill="none" aria-hidden="true" viewBox="0 0 42 30"><g filter="url(#a)"><g clip-path="url(#b)"><mask id="c" width="36" height="24" x="3" y="2" maskUnits="userSpaceOnUse" style="mask-type:alpha"><path fill="#fff" d="M3 2h36v24H3z"/></mask><g fill-rule="evenodd" clip-rule="evenodd" mask="url(#c)"><path fill="#E31D1C" d="M3 18h36v8H3v-8Z"/><path fill="#5EAA22" d="M3 10h36v8H3v-8Z"/><path fill="#FFD018" d="M3 2h36v8H3V2Z"/><path fill="#F7FCFF" d="m21.07 17.976-5.795 3.274 1.944-5.733-4.134-3.745 5.699-.11 2.52-5.66 2.298 5.734 5.685.088-4.272 3.814 1.995 5.454-5.94-3.116Z"/></g></g></g><defs><clipPath id="b"><rect width="36" height="24" x="3" y="2" fill="#fff" rx="2"/></clipPath><filter id="a" width="42" height="30" x="0" y="0" color-interpolation-filters="sRGB" filterUnits="userSpaceOnUse"><feFlood flood-opacity="0" result="BackgroundImageFix"/><feColorMatrix in="SourceAlpha" result="hardAlpha" values="0 0 0 0 0 0 0 0 0 0 0 0 0 0 0 0 0 0 127 0"/><feOffset dy="1"/><feGaussianBlur stdDeviation="1"/><feColorMatrix values="0 0 0 0 0.0627451 0 0 0 0 0.0941176 0 0 0 0 0.156863 0 0 0 0.06 0"/><feBlend in2="BackgroundImageFix" result="effect1_dropShadow_91_26492"/><feColorMatrix in="SourceAlpha" result="hardAlpha" values="0 0 0 0 0 0 0 0 0 0 0 0 0 0 0 0 0 0 127 0"/><feOffset dy="1"/><feGaussianBlur stdDeviation="1.5"/><feColorMatrix values="0 0 0 0 0.0627451 0 0 0 0 0.0941176 0 0 0 0 0.156863 0 0 0 0.1 0"/><feBlend in2="effect1_dropShadow_91_26492" result="effect2_dropShadow_91_26492"/><feBlend in="SourceGraphic" in2="effect2_dropShadow_91_26492" result="shape"/></filter></defs></svg>
